Sources/FrostedUI/Resources/Icons.xcassets/folderAdd16.imageset/folder-add-16.svg

<svg width="16" height="16" viewBox="0 0 16 16" fill="none" xmlns="http://www.w3.org/2000/svg" data-fui-icon="true">
  <path
    d="M4.95117 1C5.44501 1 5.91319 1.2222 6.22461 1.60547L7.31543 2.94824C7.34201 2.98083 7.38176 3 7.42383 3H14.2305C15.2076 3.00025 15.9997 3.79236 16 4.76953V7.25C16 7.66421 15.6642 8 15.25 8C14.8358 8 14.5 7.66421 14.5 7.25V4.76953C14.4997 4.62079 14.3792 4.50025 14.2305 4.5H7.42383C6.92999 4.5 6.46181 4.2778 6.15039 3.89453L5.05957 2.55176C5.03299 2.51916 4.99324 2.5 4.95117 2.5H1.76953C1.62079 2.50025 1.50025 2.62079 1.5 2.76953V12.2305C1.50025 12.3792 1.62079 12.4997 1.76953 12.5H9.25C9.66421 12.5 10 12.8358 10 13.25C10 13.6642 9.66421 14 9.25 14H1.76953C0.792359 13.9997 0.00025349 13.2076 0 12.2305V2.76953C0.000253554 1.79236 0.792359 1.00025 1.76953 1H4.95117ZM13 8C13.4142 8 13.75 8.33579 13.75 8.75V10.25H15.25C15.6642 10.25 16 10.5858 16 11C16 11.4142 15.6642 11.75 15.25 11.75H13.75V13.25C13.75 13.6642 13.4142 14 13 14C12.5858 14 12.25 13.6642 12.25 13.25V11.75H10.75C10.3358 11.75 10 11.4142 10 11C10 10.5858 10.3358 10.25 10.75 10.25H12.25V8.75C12.25 8.33579 12.5858 8 13 8Z"
    fill="currentColor"
  />
</svg>

<svg xmlns="http://www.w3.org/2000/svg" width="16" height="16" fill="none" data-fui-icon="true" viewBox="0 0 16 16"><path fill="currentColor" d="M4.951 1c.494 0 .962.222 1.274.605l1.09 1.343A.14.14 0 0 0 7.424 3h6.806c.978 0 1.77.792 1.77 1.77v2.48a.75.75 0 0 1-1.5 0V4.77a.27.27 0 0 0-.27-.27H7.424a1.64 1.64 0 0 1-1.274-.605L5.06 2.552A.14.14 0 0 0 4.95 2.5H1.77a.27.27 0 0 0-.27.27v9.46c0 .15.12.27.27.27h7.48a.75.75 0 0 1 0 1.5H1.77A1.77 1.77 0 0 1 0 12.23V2.77C0 1.792.792 1 1.77 1zM13 8a.75.75 0 0 1 .75.75v1.5h1.5a.75.75 0 0 1 0 1.5h-1.5v1.5a.75.75 0 0 1-1.5 0v-1.5h-1.5a.75.75 0 0 1 0-1.5h1.5v-1.5A.75.75 0 0 1 13 8"/></svg>
